X: 3135
T: SCOTCH MIST
Q: "Strathspey."
R: Strathspey.
%R: strathspey
B: James Kerr "Merry Melodies" v.3 p.16 #135
Z: 2016 John Chambers <jc:trillian.mit.edu>
M: C
L: 1/8
K: C
|:\
ee d>c (e<g) g2 | e<e d>c (3efg (3fga |\
e<e d>c A<Bc>A | G>EG>c (B<d) d2 :|
|:\
c>eg>e a>ge>g | c>de>c A<c G<c |\
c>eg>e a>ge>g |[1 f>ed>c (B<d)d2 :|\
[2 (3edc (3BAG (G<c) c2 |]

%%sep 1 1 500
%%sep 1 1 500

